!!!COM: Debali, Francisco Jose (et al)
!!!CDT: 1791-1859
!!!OTL: National Anthem, Oman
!!!ENC: Davis, Matthew J.
!!Vocal Line Only
**kern
*clefG2
*k[b-]
*F:
*M4/4
=1-
1r
=2
1r
=3
1r
=4
1r
=5
1r
=6
1r
=7
1r
=8
1r
=9
1r
=10
1r
=11
1r
=12
1r
=13
1r
=14
1r
=15
1r
=16
1r
=17
1r
=18
1r
=19
1r
=20
1r
=21
1r
=22
1r
=23
1r
=24
1r
=25
1r
=26
2r
!Verse
4c
4c
=27
2a
4g
4f
=28
2e
4f
4g
=29
2f
4e
4d
=30
2c
4a
4cc
=31
4cc
8b-
8r
4b-
8a
8r
=32
4a
8g
8r
4g
4f
=33
4e
4r
2r
=34
2r
4c
4c
=35
2a
4g
4f
=36
2e
4f
4g
=37
2.f
4e
=38
2d
4a
8a
8r
=39
4g
4cc
4bn
4a
=40
4.g
8f
8e
8g
8f
8d
=41
4c
4r
2r
=42
2r
4c
4c
=43
4c
4d
4e
4f
=44
4g
4a
4b
4e
=45
2f
4e
4d
=46
2c
4cc
4cc
=47
4ee
4dd
4cc
4b-
=48
4cc
4b-
4a
4g
=49
4f
4r
2r
=50
2r
4cc
4a
=51
4f
4e
4f
4g
=52
4b-
4a
4g
4f
=53
1e
=54
4d
4g
4b-
4dd
=55
4dd
4cc
4b-
4a
=56
4g
4dd
4cc
4g
=57
1g#
=58
4a
4r
4cc
4a
=59
4f
4e
4f
4g
=60
4b-
4a
4g
4f
=61
2e
=62
4d
4g
4b-
4dd
=63
4dd
4cc
4b-
4a
=64
4g
4dd
4cc
4e
=65
4f
4r
2r
=66
2r
4r
!Chorus
8.cc
16a
==67
4f
8.cc
16a
4f
8a
8cc
=68
8cc
8b-
4g
4r
8.g
16e
=69
4c
8.g
16e
8c
8dd
8cc
8b-
=70
8b-
8a
4f
4r
8.cc
16a
=71
4f
8.f
16g
4a
8.b-
16cc
=72
8dd
8r
2ff
8.ee
16dd
=73
8dd
8cc
8b-
8a
8cc
8b-
8a
8g
=74
2g#
4a
8.cc
16a
=75
4f
8.f
16g
4a
8.b-
16cc
=76
8dd
8r
2ff
8.ee
16dd
=77
8dd
8cc
8b-
8a
8cc
8b-
8a
8g
=78
4f
8r
8a
8cc
8b-
8a
8g
=79
4f
8r
8a
8cc
8b-
8a
8g
=80
[1f
=81
4f]
4r
2r
=82
1r
==|!
*-
